src/images/crypto-icon-svg/nebl.svg

<svg xmlns="http://www.w3.org/2000/svg" width="32" height="32" viewBox="0 0 32 32">
  <g fill="none" fill-rule="evenodd">
    <circle cx="16" cy="16" r="16" fill="#50479E"/>
    <path fill="#FFF" fill-rule="nonzero" d="M20.3594663,13.6609039 L20.3594663,18.3958718 L20.3595648,18.4429231 L16.0527668,20.8104842 L16.0527668,16.028419 L20.3594663,13.6609039 Z M25.5,12.4342759 L25.5,19.5654572 C25.4992149,20.0720427 25.3597014,20.568419 25.0970622,20.9990731 C24.836542,21.4284755 24.4597423,21.7939712 23.9929948,22.0505114 L20.7809119,23.8163077 L20.7809119,19.1087841 L21.1868031,18.8855972 L21.1868031,13.2074305 L25.1213782,11.0444575 C25.3650311,11.4631329 25.5,11.9394049 25.5,12.4342759 Z M8.00680829,22.0506114 C7.55662905,21.8034327 7.19091144,21.4534658 6.93200078,21.0435045 C6.65455959,20.6044962 6.5,20.0955261 6.5,19.5655572 L6.5,16.0339646 L6.5,15 L10.9235544,18.4546225 L10.9235544,18.6473111 L10.9313316,18.8449995 L11.2746114,19.0480876 L15.6906914,21.4758951 L16.0551295,21.6762333 L16.0551295,25.9993795 C15.5106686,26.0102368 14.9726351,25.8784425 14.4928964,25.616702 L8.00680829,22.0506114 Z M7.82261658,10.0597153 L12.5,7.5 L15.6800003,10.5799999 L10.9235544,13.2027308 L10.9235544,13.6021073 L6.50984456,16.0282649 L6.5,12.4342759 C6.50083338,11.9266454 6.64094639,11.4292979 6.9046114,10.9980602 C7.13680726,10.6187811 7.45067531,10.297934 7.82261658,10.0597153 Z M23.9929948,9.94902179 C24.4752798,10.2144062 24.8605959,10.5960838 25.1213782,11.0443575 L21.1868031,13.2073305 L21.1868031,13.1710326 L20.7808135,12.9479457 L16.4472383,10.5655856 L20.7808135,8.18332544 L23.9929948,9.94902179 Z M6.50994301,16.0283649 L10.9235544,13.6022073 L10.9235544,18.4545225 L6.50994301,16.0283649 Z M16.055228,10.3802965 L16.055228,6.00055359 C16.5621883,6.00806892 17.0599385,6.13928232 17.506513,6.38313113 L20.7805181,8.18302546 L16.4470415,10.5653856 L16.055228,10.3802965 Z M15.6907824,10.5807847 L11.2825855,8.15762695 L14.685456,6.28693677 C15.1154272,6.08950637 15.5832474,5.99168346 16.0550311,6.00055359 L16.0550311,10.3807964 L15.6907824,10.5807847 Z M16.0827927,21.6914324 L16.4472383,21.4914442 L20.7291295,23.845206 L17.5068083,25.616502 C17.0601459,25.8604357 16.5623037,25.9917496 16.055228,25.9993795 L16.055228,21.6763333 L16.0827927,21.6914324 Z M20.7808135,19.1088841 L20.7808135,23.8163077 L20.7291295,23.844806 L16.4472383,21.4910442 L20.7808135,19.1088841 Z"/>
  </g>
</svg>

<svg xmlns="http://www.w3.org/2000/svg" width="32" height="32"><g fill="none" fill-rule="evenodd"><circle cx="16" cy="16" r="16" fill="#50479E"/><path fill="#FFF" fill-rule="nonzero" d="M20.36 13.66V18.444l-4.307 2.367v-4.782l4.306-2.367zm5.14-1.226v7.131c0 .507-.14 1.003-.403 1.434-.26.43-.637.795-1.104 1.052l-3.212 1.765V19.11l.406-.223v-5.679l3.934-2.163c.244.42.379.895.379 1.39zM8.007 22.051a2.944 2.944 0 0 1-1.075-1.007 2.763 2.763 0 0 1-.432-1.478V15l4.424 3.455v.192l.007.198.344.203 4.416 2.428.364.2V26a3.13 3.13 0 0 1-1.562-.382L8.007 22.05zM7.823 10.06L12.5 7.5l3.18 3.08-4.756 2.623v.4L6.51 16.027l-.01-3.594c0-.507.14-1.005.405-1.436.232-.38.546-.7.918-.938zm16.17-.111a2.94 2.94 0 0 1 1.128 1.095l-3.934 2.163v-.036l-.406-.223-4.334-2.382 4.334-2.383 3.212 1.766zM6.51 16.029l4.414-2.427v4.853L6.51 16.028zm9.545-5.649V6a3.124 3.124 0 0 1 1.452.383l3.274 1.8-4.334 2.382-.392-.185zm-.364.2l-4.408-2.422 3.402-1.871A3.14 3.14 0 0 1 16.055 6v4.38l-.364.2zm.392 11.111l.364-.2 4.282 2.354-3.222 1.772a3.126 3.126 0 0 1-1.452.382v-4.323l.028.015zm4.698-2.582v4.707l-.052.029-4.282-2.354 4.334-2.382z"/></g></svg>
